X: 27353
T: Mister Twister
R: reel
M: 4/4
K: Gmajor
GB ~B2 AFDE|=F_B ~B2 AFC_B,|A,=F ~F2 GDB,G,|CEGE DFAF|
GB ~B2 AFDE|=F_B ~B2 AFC_B,|A,=F ~F2 GDB,G,|CEGE DFAD|
CEGE DFAF|GBdB e/d/B G/E/D|CEGE DFAF|GBe d3- d2|
CEGE DFAF|GBdB e/d/B G/E/D|CEGE AGEG|[=FA][DA][GB] [A3-^F3-] [^F2A2]|
GB ~B2 _B=FDF|Ec ~c2 dAFD|GB ~B2 _B=FDF|GECG, B,A,- A,2|
GB ~B2 _B=FDF|Ec ~c2 dAFD|GB ~B2 _B=FDF|GECG, B,A,- A,2|
CG E/G/E DAFD|Gd B/d/B cBAG|EcAG Fd^c=c|BGDC B,A, G,2|
CG E/G/E DAFD|GBdB edBd|cege aege|[f2d2] [ce] [d3-f3-] [d2f2]|

